build/img/icon/sports-icon.svg

<svg width="66" height="67" viewBox="0 0 66 67" fill="none" xmlns="http://www.w3.org/2000/svg">
<path d="M0 0L5.46329 8.77056L10.9266 0" transform="matrix(0.69669 0.717372 -0.722508 0.691363 33.7324 45.0894)" stroke="#2E3237" stroke-width="2" stroke-linejoin="bevel"/>
<rect x="1" y="1" width="5.8047" height="12.0772" transform="matrix(0.69669 0.717372 -0.722508 0.691363 29.1289 51.6541)" stroke="#2E3237" stroke-width="2"/>
<mask id="mask0" mask-type="alpha" maskUnits="userSpaceOnUse" x="6" y="6" width="41" height="41">
<path d="M39.3239 20.2016C39.3239 30.8081 30.7429 39.4031 20.1619 39.4031C9.58094 39.4031 1 30.8081 1 20.2016C1 9.59498 9.58094 1 20.1619 1C30.7429 1 39.3239 9.59498 39.3239 20.2016Z" transform="matrix(0.919516 0.393052 -0.395373 0.918521 15.9746 0)" fill="#C4C4C4" stroke="black" stroke-width="2"/>
</mask>
<g mask="url(#mask0)">
<path d="M6.9325 0.425929C7.28273 0.171877 7.75662 0.171877 8.10685 0.425929L14.0824 4.76056C14.4335 5.0152 14.5804 5.46709 14.4462 5.87948L12.1644 12.8911C12.0303 13.3029 11.6465 13.5816 11.2134 13.5816H3.82591C3.39285 13.5816 3.00901 13.3029 2.87499 12.8911L0.593165 5.87948C0.458959 5.46709 0.605859 5.0152 0.956904 4.76056L6.9325 0.425929Z" transform="matrix(-0.65913 0.753011 -0.752485 -0.657482 45.1494 7.90063)" stroke="#F24841" stroke-width="2"/>
<path d="M6.9325 0.425929C7.28273 0.171877 7.75662 0.171877 8.10685 0.425929L14.0824 4.76056C14.4335 5.0152 14.5804 5.46709 14.4462 5.87948L12.1644 12.8911C12.0303 13.3029 11.6465 13.5816 11.2134 13.5816H3.82591C3.39285 13.5816 3.00901 13.3029 2.87499 12.8911L0.593165 5.87948C0.458959 5.46709 0.605859 5.0152 0.956904 4.76056L6.9325 0.425929Z" transform="matrix(-0.65913 0.753011 -0.752485 -0.657482 19.6895 35.5513)" stroke="#F24841" stroke-width="2"/>
<path d="M5.69131 0L12.2541 4.76056C12.6051 5.0152 12.752 5.46709 12.6178 5.87948L10.336 12.8911C10.202 13.3029 9.81814 13.5816 9.38508 13.5816H1.99754C1.56449 13.5816 1.18064 13.3029 1.04663 12.8911L0 9.67499" transform="matrix(-0.65913 0.753011 -0.752485 -0.657482 41.3984 46.7229)" stroke="#F24841" stroke-width="2"/>
<path d="M6.9325 0.425929C7.28273 0.171877 7.75662 0.171877 8.10685 0.425929L14.0824 4.76056C14.4335 5.0152 14.5804 5.46709 14.4462 5.87948L12.1644 12.8911C12.0303 13.3029 11.6465 13.5816 11.2134 13.5816H3.82591C3.39285 13.5816 3.00901 13.3029 2.87499 12.8911L0.593165 5.87948C0.458959 5.46709 0.605859 5.0152 0.956904 4.76056L6.9325 0.425929Z" transform="matrix(-0.65913 0.753011 -0.752485 -0.657482 21.7432 13.3826)" stroke="#F24841" stroke-width="2"/>
<path d="M7.15164 0L0.588865 4.76056C0.23782 5.0152 0.0909197 5.46709 0.225126 5.87948L2.50696 12.8911C2.64097 13.3029 3.02481 13.5816 3.45787 13.5816H10.8454C11.2785 13.5816 11.6623 13.3029 11.7963 12.8911L12.3036 11.3322" transform="matrix(-0.65913 0.753011 -0.752485 -0.657482 56.9082 28.7949)" stroke="#F24841" stroke-width="2"/>
</g>
<path d="M38.5952 12.0049C35.4578 4.93213 28.3847 0 20.1619 0C9.02681 0 0 9.04454 0 20.2016C0 31.3586 9.02681 40.4031 20.1619 40.4031C25.3513 40.4031 30.0827 38.4388 33.656 35.2117" transform="matrix(0.919516 0.393052 -0.395373 0.918521 15.9746 0)" stroke="#2E3237" stroke-width="2"/>
<path d="M6.91779 0.42844C7.26859 0.173064 7.74406 0.173064 8.09487 0.42844L14.0588 4.77001C14.4086 5.02466 14.555 5.47538 14.4215 5.88695L12.1427 12.9142C12.009 13.3265 11.6249 13.6058 11.1915 13.6058H3.8212C3.38776 13.6058 3.00367 13.3265 2.86997 12.9142L0.591146 5.88695C0.457681 5.47538 0.60404 5.02466 0.95384 4.77001L6.91779 0.42844Z" transform="matrix(0.919516 0.393052 -0.395373 0.918521 22.7578 17.0229)" stroke="#F24841" stroke-width="2"/>
<path d="M0 0V5.57679" transform="matrix(0.919516 0.393052 -0.395373 0.918521 31.6855 15.8132)" stroke="#F24841" stroke-width="2"/>
<path d="M0 0L5.03118 1.11536" transform="matrix(0.919516 0.393052 -0.395373 0.918521 16.8496 19.175)" stroke="#F24841" stroke-width="2"/>
<path d="M0 0L4.5544 1.70924" transform="matrix(-0.845214 -0.534429 -0.537091 0.843524 39.167 28.8823)" stroke="#F24841" stroke-width="2"/>
<path d="M0 3.90375L3.91314 0" transform="matrix(0.919516 0.393052 -0.395373 0.918521 16.9189 28.9089)" stroke="#F24841" stroke-width="2"/>
<path d="M3.35412 3.34607L0 0" transform="matrix(0.919516 0.393052 -0.395373 0.918521 28.5215 34.4749)" stroke="#F24841" stroke-width="2"/>
<path d="M18.7313 26.7004C16.7747 28.5625 14.3426 29.6659 11.7071 29.6659C5.24143 29.6659 0 23.025 0 14.833C0 6.64094 5.24143 0 11.7071 0C18.1727 0 23.4141 6.64094 23.4141 14.833C23.4141 15.6299 23.3645 16.4121 23.269 17.175" transform="matrix(0.69669 0.717372 -0.722508 0.691363 49.6875 21.1804)" stroke="#2E3237" stroke-width="2"/>
<path d="M13.0485 7.02614C13.0485 10.3545 10.3511 13.0523 7.02423 13.0523C3.6974 13.0523 1 10.3545 1 7.02614C1 3.69774 3.6974 1 7.02423 1C10.3511 1 13.0485 3.69774 13.0485 7.02614Z" transform="matrix(0.69669 0.717372 -0.722508 0.691363 49.2832 43.1724)" stroke="#F24841" stroke-width="2"/>
</svg>

<svg width="66" height="67" fill="none" xmlns="http://www.w3.org/2000/svg"><path d="M0 0l5.463 8.77L10.927 0" transform="matrix(.69669 .71737 -.7225 .69136 33.732 45.09)" stroke="#2E3237" stroke-width="2" stroke-linejoin="bevel"/><path transform="matrix(.69669 .71737 -.7225 .69136 29.129 51.654)" stroke="#2E3237" stroke-width="2" d="M1 1h5.805v12.077H1z"/><mask id="a" maskUnits="userSpaceOnUse" x="6" y="6" width="41" height="41"><path d="M39.324 20.202c0 10.606-8.581 19.201-19.162 19.201S1 30.808 1 20.202C1 9.595 9.58 1 20.162 1c10.58 0 19.162 8.595 19.162 19.202z" transform="rotate(23.145 7.987 39.007) skewX(-.145)" fill="#C4C4C4" stroke="#000" stroke-width="2"/></mask><g mask="url(#a)" stroke="#F24841" stroke-width="2"><path d="M6.933.426a1 1 0 0 1 1.174 0l5.975 4.335a1 1 0 0 1 .364 1.118l-2.282 7.012a1 1 0 0 1-.95.69H3.825a1 1 0 0 1-.951-.69L.593 5.88a1 1 0 0 1 .364-1.118L6.933.426z" transform="matrix(-.65913 .75301 -.75248 -.65748 45.15 7.9)"/><path d="M6.933.426a1 1 0 0 1 1.174 0l5.975 4.335a1 1 0 0 1 .364 1.118l-2.282 7.012a1 1 0 0 1-.95.69H3.825a1 1 0 0 1-.951-.69L.593 5.88a1 1 0 0 1 .364-1.118L6.933.426z" transform="matrix(-.65913 .75301 -.75248 -.65748 19.69 35.551)"/><path d="M5.691 0l6.563 4.76a1 1 0 0 1 .364 1.12l-2.282 7.011a1 1 0 0 1-.95.69H1.997a1 1 0 0 1-.951-.69L0 9.675" transform="matrix(-.65913 .75301 -.75248 -.65748 41.398 46.723)"/><path d="M6.933.426a1 1 0 0 1 1.174 0l5.975 4.335a1 1 0 0 1 .364 1.118l-2.282 7.012a1 1 0 0 1-.95.69H3.825a1 1 0 0 1-.951-.69L.593 5.88a1 1 0 0 1 .364-1.118L6.933.426z" transform="matrix(-.65913 .75301 -.75248 -.65748 21.743 13.383)"/><path d="M7.152 0L.589 4.76a1 1 0 0 0-.364 1.12l2.282 7.011a1 1 0 0 0 .95.69h7.388a1 1 0 0 0 .951-.69l.508-1.559" transform="matrix(-.65913 .75301 -.75248 -.65748 56.908 28.795)"/></g><path d="M38.595 12.005C35.458 4.932 28.385 0 20.162 0 9.027 0 0 9.045 0 20.202c0 11.157 9.027 20.201 20.162 20.201 5.19 0 9.92-1.964 13.494-5.191" transform="rotate(23.145 7.987 39.007) skewX(-.145)" stroke="#2E3237" stroke-width="2"/><path d="M6.918.428a1 1 0 0 1 1.177 0l5.964 4.342a1 1 0 0 1 .363 1.117l-2.28 7.027a1 1 0 0 1-.95.692h-7.37a1 1 0 0 1-.952-.692L.591 5.887A1 1 0 0 1 .954 4.77L6.918.428z" transform="rotate(23.145 -30.188 64.082) skewX(-.145)" stroke="#F24841" stroke-width="2"/><path d="M0 0v5.577" transform="rotate(23.145 -22.77 85.277) skewX(-.145)" stroke="#F24841" stroke-width="2"/><path d="M0 0l5.031 1.115" transform="rotate(23.145 -38.397 50.731) skewX(-.145)" stroke="#F24841" stroke-width="2"/><path d="M0 0l4.554 1.71" transform="matrix(-.84521 -.53443 -.5371 .84352 39.167 28.882)" stroke="#F24841" stroke-width="2"/><path d="M0 3.904L3.913 0" transform="rotate(23.145 -62.13 55.767) skewX(-.145)" stroke="#F24841" stroke-width="2"/><path d="M3.354 3.346L0 0" transform="rotate(23.145 -69.92 86.882) skewX(-.145)" stroke="#F24841" stroke-width="2"/><path d="M18.731 26.7c-1.956 1.863-4.388 2.966-7.024 2.966C5.241 29.666 0 23.025 0 14.833S5.241 0 11.707 0c6.466 0 11.707 6.64 11.707 14.833 0 .797-.05 1.58-.145 2.342" transform="matrix(.69669 .71737 -.7225 .69136 49.688 21.18)" stroke="#2E3237" stroke-width="2"/><path d="M13.049 7.026A6.025 6.025 0 1 1 1 7.026a6.025 6.025 0 1 1 12.049 0z" transform="matrix(.69669 .71737 -.7225 .69136 49.283 43.172)" stroke="#F24841" stroke-width="2"/></svg>
